src/icons/icons_set_02/023-ampoule.svg

<svg height="50" viewBox="0 0 50 50" width="50" xmlns="http://www.w3.org/2000/svg"><path d="m20.5107647 10.3468159-.0222406-.0049424c5.6491094 0 10.2257283 4.3863383 10.2257283 9.7957436 0 6.4250588-4.4481177 8.0634488-4.4481177 11.8023388 0 .9143353-.6869871 1.7668912-1.7298235 2.3970412.2116595.1382885.3482616.3659587.3706764.6177941 0 .2767717-.2075788.5337741-.5708417.75618.3830323.2298194.6103806.5065912.6103806.7808917 0 .2743006-.2199347.5411877-.5955536.7685359.3682053.2248771.5831977.4843506.5831977.7635936 0 .3459647-.3336088.6746311-.8846812.9217488.1907648.1492192.3078592.3735003.321253.6153229 0 .657333-1.0230671 1.2158188-2.4711765 1.4357535-.2782343.4883621-.7970868.7899086-1.3591471.7899086s-1.0809128-.3015465-1.359147-.7899086c-1.4332824-.2224058-2.4514071-.7784205-2.4514071-1.4332823.0153437-.2450611.1350049-.4717876.3286665-.6227365-.5411877-.2545312-.8649118-.5708417-.8649118-.9118641 0-.2767718.2174635-.54613.5955535-.7710071-.3682053-.224877-.5831976-.4868217-.5831976-.7635935 0-.2767717.21005-.5337741.5708418-.75618-.3830324-.2298194-.6079095-.4967065-.6079095-.7808917.0199962-.2410769.1469443-.4605156.3459648-.5980248-1.0626059-.63015-1.7668912-1.4901194-1.7668912-2.4143394 0-3.73889-4.4629447-5.37728-4.4629447-11.8023388 0-5.4094053 4.57909-9.7957435 10.2257282-9.7957435zm2.6565441 19.0875636c.0615247-2.0577153 1.0501633-2.7637713 1.9157525-4.0889312.9759094-1.4760445 1.8966586-2.8711798 1.8966586-5.3662417 0-3.4725312-2.9065126-6.2999764-6.4813111-6.2999764-3.5747984 0-6.4813111 2.8274452-6.4813111 6.2999764 0 2.4950619.931357 3.8901972 1.9093879 5.364055.8677107 1.3251599 1.866957 2.0334026 1.9284818 4.0911179.2991374.3455038 1.3726377.907494 2.6561707.907494 1.2835329 0 2.3570333-.5619902 2.6561707-.907494zm-2.6565441-22.51508538c-.7413529 0-1.3369065-.80066118-1.3369065-1.77677588v-3.15075c0-.97364353.6029671-1.76936236 1.3369065-1.76936236s1.3369065.79571883 1.3369065 1.76936236v3.15816352c0 .97364353-.5955536 1.76936236-1.3369065 1.76936236zm-6.8575147 1.83114176.0024712-.0098847c-.6375636.37067647-1.5494277-.01976942-2.043663-.86491177l-1.5766106-2.71829412c-.48435054-.84267117-.35832054-1.83114176.2767718-2.20181823.6350924-.37067647 1.5494277.02224059 2.043663.86491176l1.5716682 2.73065c.4868218.8402.3632629 1.83114177-.2743006 2.19934706zm-5.8814 2.97529652c.84267118.4868217 1.21829 1.4036282.85255588 2.0411917s-1.35667588.7685359-2.19934706.2743006l-2.71829411-1.5741394c-.84514236-.4868218-1.23558824-1.4060994-.86491177-2.0436629.37067647-.63756358 1.35914706-.75865122 2.21170294-.2743006zm29.5429147 17.0585311c.8451424.4868218 1.2331171 1.4036283.8649118 2.0411918s-1.3591471.7685359-2.2018183.2743006l-2.7182941-1.5741394c-.8426712-.4868218-1.2281747-1.4060994-.8624406-2.043663.3657341-.6375635 1.3566759-.7685359 2.1993471-.2743006zm-30.51655823-8.1598247c0 .7364106-.79571882 1.3393777-1.76936235 1.3393777h-3.15322118c-.97117235 0-1.76689117-.6054383-1.76689117-1.3393777s.79571882-1.3369064 1.76689117-1.3369064h3.15322118c.97364353 0 1.76936235.5955535 1.76936235 1.3369064zm32.34770003-1.3369064c.9711723 0 1.7668911.602967 1.7668911 1.3369064s-.7957188 1.3369065-1.7668911 1.3369065h-3.1532212c-.9736435 0-1.7693624-.6004959-1.7693624-1.3369065s.7957189-1.3369064 1.7693624-1.3369064zm-32.72084768 7.9201205c.85008471-.4868217 1.82619942-.3607917 2.19934706.2743006.37314765.6350924-.01976941 1.5469565-.86244059 2.0411918l-2.71829411 1.5766106c-.84267118.4843506-1.83114177.3632629-2.20181824-.2743006s.02224059-1.5494277.86491177-2.0436629zm28.17141178-13.163957c-.8500847.4843506-1.8261994.3632629-2.1993471-.2743006-.3731476-.6375635.0197694-1.5494277.8624406-2.0436629l2.7182941-1.5741395c.8426712-.48682172 1.8311418-.36079172 2.2018183.2743006.3706764.6350924-.0222406 1.5469565-.8649118 2.0411918zm-3.8846894-11.07828414-.0024712-.00247117c.6375635.36820529.7710071 1.35914706.2767718 2.20181823l-1.5766106 2.71829412c-.4868218.84514235-1.4060994 1.23311706-2.043663.86491177-.6375635-.3682053-.7685358-1.35667589-.2743006-2.19934706l1.5766106-2.71829412c.4868218-.84267118 1.4060994-1.23064588 2.043663-.86491177z" transform="translate(4.489235 3.995)"/></svg>

<?xml version="1.0" encoding="UTF-8"?>
<svg width="50px" height="50px" viewBox="0 0 50 50" version="1.1" xmlns="http://www.w3.org/2000/svg" xmlns:xlink="http://www.w3.org/1999/xlink">
    <!-- Generator: Sketch 52.4 (67378) - http://www.bohemiancoding.com/sketch -->
    <title>023-ampoule</title>
    <desc>Created with Sketch.</desc>
    <g id="023-ampoule" stroke="none" stroke-width="1" fill="none" fill-rule="evenodd">
        <g id="Group" transform="translate(4.489235, 3.995000)" fill="#000000" fill-rule="nonzero">
            <g id="049-ampoule">
                <g id="ICONSET-01">
                    <g id="049-ampoule">
                        <path d="M20.5107647,10.3468159 L20.4885241,10.3418735 C26.1376335,10.3418735 30.7142524,14.7282118 30.7142524,20.1376171 C30.7142524,26.5626759 26.2661347,28.2010659 26.2661347,31.9399559 C26.2661347,32.8542912 25.5791476,33.7068471 24.5363112,34.3369971 C24.7479707,34.4752856 24.8845728,34.7029558 24.9069876,34.9547912 C24.9069876,35.2315629 24.6994088,35.4885653 24.3361459,35.7109712 C24.7191782,35.9407906 24.9465265,36.2175624 24.9465265,36.4918629 C24.9465265,36.7661635 24.7265918,37.0330506 24.3509729,37.2603988 C24.7191782,37.4852759 24.9341706,37.7447494 24.9341706,38.0239924 C24.9341706,38.3699571 24.6005618,38.6986235 24.0494894,38.9457412 C24.2402542,39.0949604 24.3573486,39.3192415 24.3707424,39.5610641 C24.3707424,40.2183971 23.3476753,40.7768829 21.8995659,40.9968176 C21.6213316,41.4851797 21.1024791,41.7867262 20.5404188,41.7867262 C19.9783585,41.7867262 19.459506,41.4851797 19.1812718,40.9968176 C17.7479894,40.7744118 16.7298647,40.2183971 16.7298647,39.5635353 C16.7452084,39.3184742 16.8648696,39.0917477 17.0585312,38.9407988 C16.5173435,38.6862676 16.1936194,38.3699571 16.1936194,38.0289347 C16.1936194,37.7521629 16.4110829,37.4828047 16.7891729,37.2579276 C16.4209676,37.0330506 16.2059753,36.7711059 16.2059753,36.4943341 C16.2059753,36.2175624 16.4160253,35.96056 16.7768171,35.7381541 C16.3937847,35.5083347 16.1689076,35.2414476 16.1689076,34.9572624 C16.1889038,34.7161855 16.3158519,34.4967468 16.5148724,34.3592376 C15.4522665,33.7290876 14.7479812,32.8691182 14.7479812,31.9448982 C14.7479812,28.2060082 10.2850365,26.5676182 10.2850365,20.1425594 C10.2850365,14.7331541 14.8641265,10.3468159 20.5107647,10.3468159 Z M23.1673088,29.4343795 C23.2288335,27.3766642 24.2174721,26.6706082 25.0830613,25.3454483 C26.0589707,23.8694038 26.9797199,22.4742685 26.9797199,19.9792066 C26.9797199,16.5066754 24.0732073,13.6792302 20.4984088,13.6792302 C16.9236104,13.6792302 14.0170977,16.5066754 14.0170977,19.9792066 C14.0170977,22.4742685 14.9484547,23.8694038 15.9264856,25.3432616 C16.7941963,26.6684215 17.7934426,27.3766642 17.8549674,29.4343795 C18.1541048,29.7798833 19.2276051,30.3418735 20.5111381,30.3418735 C21.794671,30.3418735 22.8681714,29.7798833 23.1673088,29.4343795 Z M20.5107647,6.91929412 C19.7694118,6.91929412 19.1738582,6.11863294 19.1738582,5.14251824 L19.1738582,1.99176824 C19.1738582,1.01812471 19.7768253,0.222405882 20.5107647,0.222405882 C21.2447041,0.222405882 21.8476712,1.01812471 21.8476712,1.99176824 L21.8476712,5.14993176 C21.8476712,6.12357529 21.2521176,6.91929412 20.5107647,6.91929412 Z M13.65325,8.75043588 L13.6557212,8.74055118 C13.0181576,9.11122765 12.1062935,8.72078176 11.6120582,7.87563941 L10.0354476,5.15734529 C9.55109706,4.31467412 9.67712706,3.32620353 10.3122194,2.95552706 C10.9473118,2.58485059 11.8616471,2.97776765 12.3558824,3.82043882 L13.9275506,6.55108882 C14.4143724,7.39128882 14.2908135,8.38223059 13.65325,8.75043588 Z M7.77185,11.7257324 C8.61452118,12.2125541 8.99014,13.1293606 8.62440588,13.7669241 C8.25867176,14.4044876 7.26773,14.53546 6.42505882,14.0412247 L3.70676471,12.4670853 C2.86162235,11.9802635 2.47117647,11.0609859 2.84185294,10.4234224 C3.21252941,9.78585882 4.201,9.66477118 5.05355588,10.1491218 L7.77185,11.7257324 Z M37.3147647,28.7842635 C38.1599071,29.2710853 38.5478818,30.1878918 38.1796765,30.8254553 C37.8114712,31.4630188 36.8205294,31.5939912 35.9778582,31.0997559 L33.2595641,29.5256165 C32.4168929,29.0387947 32.0313894,28.1195171 32.3971235,27.4819535 C32.7628576,26.84439 33.7537994,26.7134176 34.5964706,27.2076529 L37.3147647,28.7842635 Z M6.79820647,20.6244388 C6.79820647,21.3608494 6.00248765,21.9638165 5.02884412,21.9638165 L1.87562294,21.9638165 C0.904450588,21.9638165 0.108731765,21.3583782 0.108731765,20.6244388 C0.108731765,19.8904994 0.904450588,19.2875324 1.87562294,19.2875324 L5.02884412,19.2875324 C6.00248765,19.2875324 6.79820647,19.8830859 6.79820647,20.6244388 Z M39.1459065,19.2875324 C40.1170788,19.2875324 40.9127976,19.8904994 40.9127976,20.6244388 C40.9127976,21.3583782 40.1170788,21.9613453 39.1459065,21.9613453 L35.9926853,21.9613453 C35.0190418,21.9613453 34.2233229,21.3608494 34.2233229,20.6244388 C34.2233229,19.8880282 35.0190418,19.2875324 35.9926853,19.2875324 L39.1459065,19.2875324 Z M6.42505882,27.2076529 C7.27514353,26.7208312 8.25125824,26.8468612 8.62440588,27.4819535 C8.99755353,28.1170459 8.60463647,29.02891 7.76196529,29.5231453 L5.04367118,31.0997559 C4.201,31.5841065 3.21252941,31.4630188 2.84185294,30.8254553 C2.47117647,30.1878918 2.86409353,29.2760276 3.70676471,28.7817924 L6.42505882,27.2076529 Z M34.5964706,14.0436959 C33.7463859,14.5280465 32.7702712,14.4069588 32.3971235,13.7693953 C32.0239759,13.1318318 32.4168929,12.2199676 33.2595641,11.7257324 L35.9778582,10.1515929 C36.8205294,9.66477118 37.809,9.79080118 38.1796765,10.4258935 C38.5503529,11.0609859 38.1574359,11.97285 37.3147647,12.4670853 L34.5964706,14.0436959 Z M30.7117812,2.96541176 L30.70931,2.96294059 C31.3468735,3.33114588 31.4803171,4.32208765 30.9860818,5.16475882 L29.4094712,7.88305294 C28.9226494,8.72819529 28.0033718,9.11617 27.3658082,8.74796471 C26.7282447,8.37975941 26.5972724,7.39128882 27.0915076,6.54861765 L28.6681182,3.83032353 C29.15494,2.98765235 30.0742176,2.59967765 30.7117812,2.96541176 Z" id="Combined-Shape"></path>
                    </g>
                </g>
            </g>
        </g>
    </g>
</svg>
